public/assets/shape-icon-1.svg

<svg width="45" height="41" viewBox="0 0 45 41" fill="none" xmlns="http://www.w3.org/2000/svg">
<path d="M44.3001 21.0169C44.3001 13.1874 37.8565 6.81445 29.9401 6.81445C22.0237 6.81445 15.5801 13.1874 15.5801 21.0169C15.5801 28.8465 22.0237 35.2194 29.9401 35.2194C30.4924 35.2194 31.0447 35.2194 31.597 35.1283C33.1619 37.3133 36.0155 38.2237 38.6849 37.2223C38.9611 37.1312 39.2372 37.0402 39.4213 36.8581C38.5929 36.2208 37.9485 35.4015 37.4883 34.309C37.3042 33.9448 37.2121 33.5806 37.2121 33.2165C41.4465 30.7583 44.3001 26.2063 44.3001 21.0169Z" fill="#006D68"/>
<path d="M0.299805 17.8304C0.299805 10.0008 6.74339 3.62793 14.6598 3.62793C22.5762 3.62793 29.0198 10.0008 29.0198 17.8304C29.0198 25.66 22.5762 32.0329 14.6598 32.0329C14.1075 32.0329 13.5552 32.0329 13.0029 31.9418C11.438 34.1268 8.58442 35.0372 5.91493 34.0358C5.63878 33.9447 5.36262 33.8537 5.17852 33.6716C6.00698 33.0343 6.65134 32.2149 7.1116 31.1224C7.2957 30.7583 7.38775 30.3941 7.38775 30.0299C3.15339 27.5718 0.299805 23.1108 0.299805 17.8304Z" fill="#A5C352"/>
</svg>

<svg xmlns="http://www.w3.org/2000/svg" width="45" height="41" fill="none" viewBox="0 0 45 41"><path fill="#006d68" d="M44.3 21.017c0-7.83-6.443-14.203-14.36-14.203s-14.36 6.373-14.36 14.203 6.444 14.202 14.36 14.202c.552 0 1.105 0 1.657-.09 1.565 2.184 4.419 3.095 7.088 2.093.276-.09.552-.182.736-.364-.828-.637-1.472-1.456-1.933-2.549a2.4 2.4 0 0 1-.276-1.092c4.234-2.459 7.088-7.01 7.088-12.2"/><path fill="#a5c352" d="M.3 17.83C.3 10 6.743 3.628 14.66 3.628S29.02 10 29.02 17.83s-6.444 14.203-14.36 14.203c-.553 0-1.105 0-1.657-.091-1.565 2.185-4.419 3.095-7.088 2.094-.276-.091-.552-.182-.736-.364.828-.638 1.472-1.457 1.933-2.55q.276-.546.276-1.092C3.153 27.572.3 23.11.3 17.83"/></svg>
